X: 43051
T: Wind On The Heath
R: waltz
M: 3/4
K: Dmajor
A,|:D3 ED2|F4 G2|A4 B2|A3 FD2|G4 d2|F4 d2|E3 FD2|C2 B,2 A,2|
D3 ED2|F4 G2|A4 B2|A3 FD2|F2 d2 F2|E2 d2 c2|d6|d4 A2:|
d3 ed2|f4 g2|a4 g2|f2 e2 d2|B6|c4 d2|e2 f2 d2|c2 B2 A2|
d3 ed2|f4 g2|a4 g2|f2 e2 d2|Bc d2 B2|cd e2 c2|d6|d4 A2
d3 ed2|f4 g2|a4 g2|f2 e2 d2|B6|c4 d2|e2 f2 d2|c2 B2 A2|
d2 a2 d2|c2 a2 c2|B2 a2 g2|f2 e2 d2|Bc d2 B2|cd e2 c2|d2 A2 F2|D6||

